X:2
T:Trim the Velvet
R:reel
S:Joe Burke
H:Similar to "Kiss the Maid behind the Barrel", #549
D:Mary Bergin: Feadoga Stain 2.
Z:id:hn-reel-2
M:C|
K:G
GFGB AGFD|GBdB cAFA|~G3B AGFA|defd cAFA|
GFGB AGAc|BGBd cAFA|GFGB AGFA|defd cAFA||
dgeg dg~g2|dedB cAFA|dgeg dg~g2|defd cAFA|
~d3e dBGB|~d3B cAFA|dgeg dg~g2|defd cAFA||
|:~g3a bgaf|~g2ab c'baf|~g2bg fgaf|defd cAFA:|
BGdG BG~G2|DGBd cAFA|BGdG BGBc|defd cAFA|
BGdG BG~G2 |DGBd cAFA|BG~G2 cA~A2|defd cAFA||
